X:20
T: Oats beans n barley grow
C:Trad
L:1/8
M:6/8
K:D
"D"A2 A F2 D|"G"G2 B "D"A3|A2 A F2 D|"G"G2 B "D"A2 A/A/| d2 d "A"c2 c|"G"BBB "D"A2 A|"G"G2 G "D"F2 F| "A"E2 E "D"D3 | "D"A2 A F2 D|"G" E3 "D"D3 :|



